web/public/images/startup-logos/uservitals.svg

<svg width="291" height="54" viewBox="0 0 291 54" fill="none" xmlns="http://www.w3.org/2000/svg">
<path d="M4.16512 35.4054H14.5804V45.8306C14.5791 46.936 14.1399 47.9958 13.359 48.7775C12.5782 49.5591 11.5196 49.9988 10.4153 50H0V39.3595C0.0563474 38.2918 0.519769 37.2865 1.29472 36.5508C2.06968 35.8152 3.09709 35.4052 4.16512 35.4054Z" fill="white"/>
<path d="M31.2509 18.7188V39.5744C31.2482 42.3388 30.1501 44.9888 28.1974 46.9435C26.2447 48.8981 23.5971 49.9972 20.8356 49.9999H17.6205C18.357 48.7343 18.7452 47.2957 18.7455 45.8306V31.2312H4.16512C2.70182 31.2323 1.26484 31.6208 0 32.3574V28.979C0.0458798 26.2436 1.16311 23.6355 3.11113 21.7165C5.05915 19.7975 7.68213 18.721 10.4153 18.7188H31.2509Z" fill="white"/>
<path d="M49.9996 24.9751C49.9952 30.3981 48.2314 35.6731 44.9735 40.0059C41.7152 44.3387 37.1391 47.4948 31.9339 48.9991C34.1896 46.3701 35.4312 43.02 35.434 39.5547V14.5297H10.4333C6.97313 14.5284 3.62658 15.7658 0.998047 18.0182C2.68187 12.2393 6.39027 7.26169 11.4433 3.99785C16.4964 0.734004 22.5555 -0.597294 28.5097 0.248045C34.4639 1.09339 39.9142 4.05872 43.8613 8.60032C47.8084 13.142 49.9873 18.9555 49.9996 24.9751Z" fill="white"/>
<path d="M79.1268 43.45C76.4868 43.45 74.1768 43.015 72.1968 42.145C70.2168 41.245 68.6868 39.88 67.6068 38.05C66.5268 36.19 65.9868 33.835 65.9868 30.985V12.625C65.9868 12.295 66.0918 12.025 66.3018 11.815C66.5118 11.605 66.7818 11.5 67.1118 11.5H72.0168C72.3468 11.5 72.6168 11.605 72.8268 11.815C73.0368 12.025 73.1418 12.295 73.1418 12.625V30.94C73.1418 33.16 73.6668 34.81 74.7168 35.89C75.7668 36.97 77.2368 37.51 79.1268 37.51C80.9868 37.51 82.4418 36.97 83.4918 35.89C84.5418 34.81 85.0668 33.16 85.0668 30.94V12.625C85.0668 12.295 85.1718 12.025 85.3818 11.815C85.6218 11.605 85.8918 11.5 86.1918 11.5H91.1418C91.4418 11.5 91.6968 11.605 91.9068 11.815C92.1168 12.025 92.2218 12.295 92.2218 12.625V30.985C92.2218 33.835 91.6818 36.19 90.6018 38.05C89.5218 39.88 88.0068 41.245 86.0568 42.145C84.1068 43.015 81.7968 43.45 79.1268 43.45ZM107.243 43.45C105.383 43.45 103.778 43.24 102.428 42.82C101.108 42.37 100.028 41.83 99.1876 41.2C98.3776 40.57 97.7626 39.94 97.3426 39.31C96.9526 38.65 96.7426 38.095 96.7126 37.645C96.6826 37.315 96.7876 37.045 97.0276 36.835C97.2676 36.625 97.5076 36.52 97.7476 36.52H102.113C102.203 36.52 102.293 36.535 102.383 36.565C102.473 36.595 102.563 36.67 102.653 36.79C103.043 37.06 103.448 37.375 103.868 37.735C104.288 38.065 104.768 38.35 105.308 38.59C105.878 38.83 106.583 38.95 107.423 38.95C108.413 38.95 109.253 38.755 109.943 38.365C110.633 37.945 110.978 37.36 110.978 36.61C110.978 36.07 110.813 35.62 110.483 35.26C110.183 34.9 109.598 34.57 108.728 34.27C107.858 33.97 106.568 33.64 104.858 33.28C103.238 32.92 101.858 32.44 100.718 31.84C99.5776 31.24 98.7226 30.49 98.1526 29.59C97.5826 28.66 97.2976 27.55 97.2976 26.26C97.2976 25.09 97.6576 23.965 98.3776 22.885C99.1276 21.805 100.223 20.92 101.663 20.23C103.103 19.51 104.903 19.15 107.063 19.15C108.713 19.15 110.153 19.36 111.383 19.78C112.643 20.17 113.693 20.68 114.533 21.31C115.373 21.91 116.003 22.54 116.423 23.2C116.873 23.83 117.113 24.385 117.143 24.865C117.173 25.165 117.083 25.42 116.873 25.63C116.663 25.84 116.423 25.945 116.153 25.945H112.148C111.998 25.945 111.863 25.93 111.743 25.9C111.623 25.84 111.518 25.765 111.428 25.675C111.068 25.435 110.693 25.165 110.303 24.865C109.943 24.535 109.508 24.25 108.998 24.01C108.488 23.77 107.828 23.65 107.018 23.65C106.028 23.65 105.263 23.875 104.723 24.325C104.213 24.745 103.958 25.285 103.958 25.945C103.958 26.365 104.093 26.755 104.363 27.115C104.633 27.475 105.188 27.805 106.028 28.105C106.868 28.405 108.143 28.72 109.853 29.05C111.893 29.41 113.513 29.95 114.713 30.67C115.913 31.39 116.768 32.23 117.278 33.19C117.818 34.12 118.088 35.125 118.088 36.205C118.088 37.615 117.668 38.875 116.828 39.985C115.988 41.065 114.758 41.92 113.138 42.55C111.548 43.15 109.583 43.45 107.243 43.45ZM132.847 43.45C129.397 43.45 126.652 42.49 124.612 40.57C122.602 38.65 121.537 35.86 121.417 32.2C121.417 31.96 121.417 31.645 121.417 31.255C121.417 30.835 121.417 30.505 121.417 30.265C121.537 27.955 122.062 25.975 122.992 24.325C123.922 22.645 125.227 21.37 126.907 20.5C128.587 19.6 130.552 19.15 132.802 19.15C135.322 19.15 137.422 19.675 139.102 20.725C140.812 21.745 142.087 23.155 142.927 24.955C143.797 26.725 144.232 28.765 144.232 31.075V32.11C144.232 32.41 144.112 32.665 143.872 32.875C143.662 33.085 143.407 33.19 143.107 33.19H128.392C128.392 33.22 128.392 33.28 128.392 33.37C128.392 33.43 128.392 33.49 128.392 33.55C128.422 34.51 128.602 35.395 128.932 36.205C129.292 36.985 129.787 37.615 130.417 38.095C131.077 38.575 131.857 38.815 132.757 38.815C133.507 38.815 134.122 38.71 134.602 38.5C135.082 38.29 135.472 38.035 135.772 37.735C136.102 37.435 136.342 37.18 136.492 36.97C136.762 36.67 136.972 36.49 137.122 36.43C137.302 36.34 137.572 36.295 137.932 36.295H142.612C142.912 36.295 143.152 36.385 143.332 36.565C143.542 36.715 143.632 36.94 143.602 37.24C143.572 37.72 143.317 38.32 142.837 39.04C142.387 39.73 141.712 40.42 140.812 41.11C139.912 41.77 138.787 42.325 137.437 42.775C136.117 43.225 134.587 43.45 132.847 43.45ZM128.392 29.095H137.212V29.005C137.212 27.925 137.032 26.995 136.672 26.215C136.342 25.405 135.847 24.775 135.187 24.325C134.527 23.875 133.732 23.65 132.802 23.65C131.872 23.65 131.077 23.875 130.417 24.325C129.757 24.775 129.247 25.405 128.887 26.215C128.557 26.995 128.392 27.925 128.392 29.005V29.095ZM149.811 43C149.511 43 149.256 42.895 149.046 42.685C148.836 42.475 148.731 42.205 148.731 41.875V20.725C148.731 20.425 148.836 20.17 149.046 19.96C149.256 19.72 149.511 19.6 149.811 19.6H154.221C154.521 19.6 154.776 19.72 154.986 19.96C155.226 20.17 155.346 20.425 155.346 20.725V22.525C156.096 21.595 157.011 20.875 158.091 20.365C159.201 19.855 160.476 19.6 161.916 19.6H163.851C164.151 19.6 164.406 19.705 164.616 19.915C164.826 20.125 164.931 20.395 164.931 20.725V24.595C164.931 24.925 164.826 25.195 164.616 25.405C164.406 25.615 164.151 25.72 163.851 25.72H159.891C158.571 25.72 157.536 26.095 156.786 26.845C156.036 27.565 155.661 28.6 155.661 29.95V41.875C155.661 42.205 155.556 42.475 155.346 42.685C155.136 42.895 154.866 43 154.536 43H149.811ZM177.168 43C176.688 43 176.298 42.88 175.998 42.64C175.728 42.37 175.533 42.055 175.413 41.695L165.963 12.85C165.933 12.7 165.918 12.565 165.918 12.445C165.918 12.205 166.008 11.995 166.188 11.815C166.368 11.605 166.593 11.5 166.863 11.5H171.588C172.038 11.5 172.383 11.635 172.623 11.905C172.893 12.145 173.058 12.37 173.118 12.58L180.138 34.585L187.113 12.58C187.203 12.37 187.368 12.145 187.608 11.905C187.848 11.635 188.193 11.5 188.643 11.5H193.368C193.638 11.5 193.863 11.605 194.043 11.815C194.223 11.995 194.313 12.205 194.313 12.445C194.313 12.565 194.298 12.7 194.268 12.85L184.818 41.695C184.728 42.055 184.533 42.37 184.233 42.64C183.963 42.88 183.573 43 183.063 43H177.168ZM198.722 43C198.422 43 198.167 42.895 197.957 42.685C197.747 42.475 197.642 42.205 197.642 41.875V20.725C197.642 20.395 197.747 20.125 197.957 19.915C198.167 19.705 198.422 19.6 198.722 19.6H203.222C203.552 19.6 203.822 19.705 204.032 19.915C204.242 20.125 204.347 20.395 204.347 20.725V41.875C204.347 42.205 204.242 42.475 204.032 42.685C203.822 42.895 203.552 43 203.222 43H198.722ZM198.587 16C198.287 16 198.032 15.895 197.822 15.685C197.612 15.475 197.507 15.205 197.507 14.875V11.275C197.507 10.945 197.612 10.675 197.822 10.465C198.032 10.225 198.287 10.105 198.587 10.105H203.312C203.642 10.105 203.912 10.225 204.122 10.465C204.362 10.675 204.482 10.945 204.482 11.275V14.875C204.482 15.205 204.362 15.475 204.122 15.685C203.912 15.895 203.642 16 203.312 16H198.587ZM221.24 43C219.38 43 217.79 42.7 216.47 42.1C215.15 41.47 214.145 40.51 213.455 39.22C212.795 37.93 212.465 36.31 212.465 34.36V24.91H208.955C208.625 24.91 208.355 24.805 208.145 24.595C207.935 24.385 207.83 24.115 207.83 23.785V20.725C207.83 20.395 207.935 20.125 208.145 19.915C208.355 19.705 208.625 19.6 208.955 19.6H212.465V12.175C212.465 11.845 212.57 11.575 212.78 11.365C213.02 11.155 213.29 11.05 213.59 11.05H218C218.33 11.05 218.6 11.155 218.81 11.365C219.02 11.575 219.125 11.845 219.125 12.175V19.6H224.75C225.05 19.6 225.305 19.705 225.515 19.915C225.725 20.125 225.83 20.395 225.83 20.725V23.785C225.83 24.115 225.725 24.385 225.515 24.595C225.305 24.805 225.05 24.91 224.75 24.91H219.125V33.82C219.125 34.96 219.32 35.86 219.71 36.52C220.13 37.15 220.85 37.465 221.87 37.465H225.155C225.455 37.465 225.71 37.57 225.92 37.78C226.13 37.99 226.235 38.245 226.235 38.545V41.875C226.235 42.205 226.13 42.475 225.92 42.685C225.71 42.895 225.455 43 225.155 43H221.24ZM237.046 43.45C235.456 43.45 234.031 43.15 232.771 42.55C231.511 41.92 230.506 41.08 229.756 40.03C229.006 38.98 228.631 37.81 228.631 36.52C228.631 34.39 229.486 32.71 231.196 31.48C232.936 30.25 235.216 29.41 238.036 28.96L243.931 28.105V27.295C243.931 26.125 243.661 25.225 243.121 24.595C242.581 23.965 241.636 23.65 240.286 23.65C239.296 23.65 238.501 23.845 237.901 24.235C237.301 24.625 236.836 25.135 236.506 25.765C236.266 26.155 235.921 26.35 235.471 26.35H231.196C230.866 26.35 230.611 26.26 230.431 26.08C230.251 25.87 230.176 25.63 230.206 25.36C230.206 24.85 230.401 24.25 230.791 23.56C231.181 22.87 231.781 22.195 232.591 21.535C233.401 20.845 234.436 20.275 235.696 19.825C236.956 19.375 238.501 19.15 240.331 19.15C242.221 19.15 243.841 19.375 245.191 19.825C246.541 20.275 247.621 20.905 248.431 21.715C249.241 22.525 249.841 23.47 250.231 24.55C250.621 25.6 250.816 26.74 250.816 27.97V41.875C250.816 42.205 250.711 42.475 250.501 42.685C250.291 42.895 250.021 43 249.691 43H245.281C244.981 43 244.726 42.895 244.516 42.685C244.306 42.475 244.201 42.205 244.201 41.875V40.21C243.811 40.78 243.286 41.32 242.626 41.83C241.966 42.31 241.171 42.7 240.241 43C239.341 43.3 238.276 43.45 237.046 43.45ZM238.846 38.77C239.836 38.77 240.721 38.56 241.501 38.14C242.281 37.72 242.896 37.075 243.346 36.205C243.796 35.335 244.021 34.24 244.021 32.92V32.155L239.836 32.83C238.216 33.1 237.031 33.505 236.281 34.045C235.531 34.585 235.156 35.245 235.156 36.025C235.156 36.595 235.321 37.09 235.651 37.51C236.011 37.93 236.476 38.245 237.046 38.455C237.616 38.665 238.216 38.77 238.846 38.77ZM257.39 43C257.06 43 256.79 42.895 256.58 42.685C256.37 42.475 256.265 42.205 256.265 41.875V12.175C256.265 11.845 256.37 11.575 256.58 11.365C256.79 11.155 257.06 11.05 257.39 11.05H261.89C262.19 11.05 262.445 11.155 262.655 11.365C262.865 11.575 262.97 11.845 262.97 12.175V41.875C262.97 42.205 262.865 42.475 262.655 42.685C262.445 42.895 262.19 43 261.89 43H257.39ZM277.882 43.45C276.022 43.45 274.417 43.24 273.067 42.82C271.747 42.37 270.667 41.83 269.827 41.2C269.017 40.57 268.402 39.94 267.982 39.31C267.592 38.65 267.382 38.095 267.352 37.645C267.322 37.315 267.427 37.045 267.667 36.835C267.907 36.625 268.147 36.52 268.387 36.52H272.752C272.842 36.52 272.932 36.535 273.022 36.565C273.112 36.595 273.202 36.67 273.292 36.79C273.682 37.06 274.087 37.375 274.507 37.735C274.927 38.065 275.407 38.35 275.947 38.59C276.517 38.83 277.222 38.95 278.062 38.95C279.052 38.95 279.892 38.755 280.582 38.365C281.272 37.945 281.617 37.36 281.617 36.61C281.617 36.07 281.452 35.62 281.122 35.26C280.822 34.9 280.237 34.57 279.367 34.27C278.497 33.97 277.207 33.64 275.497 33.28C273.877 32.92 272.497 32.44 271.357 31.84C270.217 31.24 269.362 30.49 268.792 29.59C268.222 28.66 267.937 27.55 267.937 26.26C267.937 25.09 268.297 23.965 269.017 22.885C269.767 21.805 270.862 20.92 272.302 20.23C273.742 19.51 275.542 19.15 277.702 19.15C279.352 19.15 280.792 19.36 282.022 19.78C283.282 20.17 284.332 20.68 285.172 21.31C286.012 21.91 286.642 22.54 287.062 23.2C287.512 23.83 287.752 24.385 287.782 24.865C287.812 25.165 287.722 25.42 287.512 25.63C287.302 25.84 287.062 25.945 286.792 25.945H282.787C282.637 25.945 282.502 25.93 282.382 25.9C282.262 25.84 282.157 25.765 282.067 25.675C281.707 25.435 281.332 25.165 280.942 24.865C280.582 24.535 280.147 24.25 279.637 24.01C279.127 23.77 278.467 23.65 277.657 23.65C276.667 23.65 275.902 23.875 275.362 24.325C274.852 24.745 274.597 25.285 274.597 25.945C274.597 26.365 274.732 26.755 275.002 27.115C275.272 27.475 275.827 27.805 276.667 28.105C277.507 28.405 278.782 28.72 280.492 29.05C282.532 29.41 284.152 29.95 285.352 30.67C286.552 31.39 287.407 32.23 287.917 33.19C288.457 34.12 288.727 35.125 288.727 36.205C288.727 37.615 288.307 38.875 287.467 39.985C286.627 41.065 285.397 41.92 283.777 42.55C282.187 43.15 280.222 43.45 277.882 43.45Z" fill="white"/>
</svg>

<svg fill="none" height="54" width="291" xmlns="http://www.w3.org/2000/svg"><g fill="#fff"><path d="M4.2 35.4h10.4v10.4a4.2 4.2 0 0 1-4.2 4.2H0V39.4a4.2 4.2 0 0 1 4.2-4z"/><path d="M31.3 18.7v20.9A10.4 10.4 0 0 1 20.8 50h-3.2a8.3 8.3 0 0 0 1.1-4.2V31.2H4.2c-1.5 0-3 .4-4.2 1.2V29a10.4 10.4 0 0 1 10.4-10.3z"/><path d="M50 25a25 25 0 0 1-18 24c2.2-2.6 3.4-6 3.4-9.4v-25h-25C7 14.5 3.6 15.7 1 18a25 25 0 0 1 49 7zM79.1 43.5c-2.6 0-5-.5-6.9-1.4a10 10 0 0 1-4.6-4A14 14 0 0 1 66 31V12.6c0-.3 0-.6.3-.8s.5-.3.8-.3h5c.2 0 .5.1.7.3s.3.5.3.8V31c0 2.3.6 4 1.6 5s2.5 1.6 4.4 1.6c1.9 0 3.3-.5 4.4-1.6s1.6-2.7 1.6-5V12.6c0-.3 0-.6.3-.8.2-.2.5-.3.8-.3h5c.2 0 .5.1.7.3s.3.5.3.8V31a14 14 0 0 1-1.6 7 10 10 0 0 1-4.5 4.1c-2 1-4.3 1.4-7 1.4zm28.1 0c-1.8 0-3.4-.3-4.8-.7-1.3-.4-2.4-1-3.2-1.6a8.3 8.3 0 0 1-1.9-1.9 4 4 0 0 1-.6-1.7c0-.3 0-.6.3-.8l.7-.3h4.7l.3.3 1.2 1 1.4.8c.6.2 1.3.4 2.1.4a5 5 0 0 0 2.5-.6c.7-.5 1-1 1-1.8 0-.5 0-1-.4-1.3-.3-.4-.9-.7-1.8-1l-3.8-1c-1.7-.4-3-.9-4.2-1.5-1.1-.6-2-1.3-2.5-2.2a6.2 6.2 0 0 1 .2-6.7c.7-1.1 1.8-2 3.3-2.7a12 12 0 0 1 5.4-1 13.4 13.4 0 0 1 7.4 2.1 7 7 0 0 1 2 1.9c.4.6.6 1.2.6 1.7 0 .3 0 .5-.2.7s-.5.3-.7.3h-4.5l-.3-.2-1.1-.8c-.4-.4-.8-.7-1.3-.9s-1.2-.4-2-.4c-1 0-1.7.3-2.3.7a2 2 0 0 0-.3 2.8c.2.4.8.7 1.6 1l3.9 1c2 .3 3.6.8 4.8 1.6s2 1.5 2.6 2.5a6.1 6.1 0 0 1-.5 6.8c-.8 1-2 2-3.7 2.5-1.6.6-3.5 1-5.9 1zm25.6 0c-3.4 0-6.1-1-8.2-3-2-1.8-3-4.6-3.2-8.3v-2c.1-2.2.7-4.2 1.6-5.9 1-1.7 2.2-3 4-3.8 1.6-.9 3.6-1.3 5.8-1.3 2.5 0 4.6.5 6.3 1.5 1.7 1 3 2.5 3.8 4.3.9 1.7 1.3 3.8 1.3 6v1.1c0 .3 0 .6-.3.8a1 1 0 0 1-.8.3h-14.7V33.5c0 1 .2 1.9.5 2.7a5 5 0 0 0 1.5 1.9c.7.5 1.5.7 2.4.7.7 0 1.3 0 1.8-.3l1.2-.8.7-.7.6-.6.8-.1h4.7c.3 0 .6 0 .7.3.2.1.3.3.3.6 0 .5-.3 1.1-.8 1.8-.4.7-1 1.4-2 2.1-.9.7-2 1.2-3.4 1.7-1.3.4-2.8.7-4.6.7zM128.4 29h8.8c0-1.2-.2-2.1-.5-2.9-.4-.8-.9-1.4-1.5-1.9s-1.5-.6-2.4-.6-1.7.2-2.4.6-1.2 1.1-1.5 2c-.3.7-.5 1.6-.5 2.7zM149.8 43c-.3 0-.5-.1-.8-.3s-.3-.5-.3-.8V20.7c0-.3.1-.5.3-.7.3-.3.5-.4.8-.4h4.4c.3 0 .6.1.8.4.2.2.3.4.3.7v1.8c.8-.9 1.7-1.6 2.8-2.1a9 9 0 0 1 3.8-.8h2c.3 0 .5.1.7.3s.3.5.3.8v3.9c0 .3 0 .6-.3.8s-.4.3-.7.3h-4c-1.3 0-2.4.4-3.1 1.1-.8.8-1.1 1.8-1.1 3.2v11.9c0 .3-.1.6-.4.8s-.4.3-.8.3zm27.4 0c-.5 0-.9-.1-1.2-.4-.3-.2-.5-.5-.6-1L166 12.9v-.4c0-.2 0-.4.2-.6.2-.2.4-.3.7-.3h4.7c.4 0 .8.1 1 .4.3.2.5.5.5.7l7 22 7-22 .5-.7c.2-.3.6-.4 1-.4h4.8c.2 0 .5.1.6.3l.3.6v.5l-9.5 28.8c0 .4-.3.7-.6 1-.2.2-.6.3-1.1.3zm21.5 0c-.3 0-.5-.1-.7-.3s-.4-.5-.4-.8V20.7c0-.3.1-.6.4-.8s.4-.3.7-.3h4.5c.4 0 .6.1.8.3s.3.5.3.8V42c0 .3 0 .6-.3.8s-.4.3-.8.3zm-.1-27c-.3 0-.6-.1-.8-.3s-.3-.5-.3-.8v-3.6c0-.4.1-.6.3-.8.2-.3.5-.4.8-.4h4.7c.3 0 .6.1.8.4.3.2.4.4.4.8v3.6c0 .3-.1.6-.4.8-.2.2-.5.3-.8.3zm22.6 27c-1.8 0-3.4-.3-4.7-.9a6.5 6.5 0 0 1-3-2.9c-.7-1.3-1-2.9-1-4.8v-9.5H209c-.4 0-.6 0-.9-.3s-.3-.5-.3-.8v-3c0-.4.1-.7.3-.9s.5-.3.9-.3h3.5v-7.4c0-.4 0-.6.3-.8.2-.2.5-.4.8-.4h4.4c.3 0 .6.2.8.4s.3.4.3.8v7.4h5.6c.3 0 .6.1.8.3s.3.5.3.8v3c0 .4 0 .7-.3.9s-.5.3-.8.3h-5.6v9c0 1 .2 2 .6 2.6.4.7 1.1 1 2.2 1h3.3c.3 0 .5 0 .7.3s.3.4.3.7V42c0 .3 0 .6-.3.8s-.4.3-.7.3zm15.8.5c-1.5 0-3-.3-4.2-1-1.3-.6-2.3-1.4-3-2.5s-1.2-2.2-1.2-3.5c0-2.1.9-3.8 2.6-5 1.7-1.2 4-2 6.8-2.5l6-.9v-.8c0-1.2-.3-2-.9-2.7s-1.5-1-2.8-1c-1 0-1.8.2-2.4.6s-1 1-1.4 1.6c-.2.4-.6.6-1 .6h-4.3c-.3 0-.6-.1-.8-.3a1 1 0 0 1-.2-.7c0-.5.2-1.1.6-1.8s1-1.4 1.8-2c.8-.8 1.8-1.3 3.1-1.8s2.8-.6 4.6-.6c2 0 3.5.2 4.9.6s2.4 1.1 3.2 2a8.6 8.6 0 0 1 2.4 6.2v13.9c0 .3 0 .6-.3.8s-.5.3-.8.3h-4.4c-.3 0-.6-.1-.8-.3s-.3-.5-.3-.8v-1.7a7.3 7.3 0 0 1-4 2.8c-.9.3-2 .5-3.2.5zm1.8-4.7c1 0 2-.2 2.7-.7s1.4-1 1.8-1.9.7-2 .7-3.3v-.7l-4.2.6c-1.6.3-2.8.7-3.5 1.2s-1.1 1.2-1.1 2c0 .6.1 1 .5 1.5.3.4.8.7 1.3 1s1.2.3 1.8.3zm18.6 4.2c-.3 0-.6-.1-.8-.3s-.3-.5-.3-.8V12.2c0-.4 0-.6.3-.8s.5-.4.8-.4h4.5c.3 0 .5.2.8.4s.3.4.3.8v29.7c0 .3-.1.6-.3.8s-.5.3-.8.3zm20.5.5c-1.9 0-3.5-.3-4.8-.7-1.4-.4-2.4-1-3.3-1.6a8.3 8.3 0 0 1-1.8-1.9 4 4 0 0 1-.6-1.7c0-.3 0-.6.3-.8l.7-.3H273l.3.3 1.2 1 1.4.8c.6.2 1.3.4 2.2.4a5 5 0 0 0 2.5-.6c.7-.5 1-1 1-1.8 0-.5-.1-1-.5-1.3-.3-.4-.9-.7-1.7-1l-3.9-1c-1.6-.4-3-.9-4.1-1.5s-2-1.3-2.6-2.2a6.2 6.2 0 0 1 .2-6.7c.8-1.1 1.9-2 3.3-2.7a12 12 0 0 1 5.4-1 13.4 13.4 0 0 1 7.5 2.1 7 7 0 0 1 1.9 1.9c.4.6.7 1.2.7 1.7 0 .3 0 .5-.3.7s-.4.3-.7.3h-4.4l-.3-.2-1.2-.8c-.3-.4-.8-.7-1.3-.9s-1.1-.4-2-.4c-1 0-1.7.3-2.2.7a2 2 0 0 0-.4 2.8c.3.4.8.7 1.7 1l3.8 1c2 .3 3.7.8 4.9 1.6s2 1.5 2.5 2.5c.6 1 .8 2 .8 3 0 1.4-.4 2.7-1.2 3.8-.9 1-2.1 2-3.7 2.5-1.6.6-3.6 1-6 1z"/></g></svg>
